icons/earth-line.svg

<svg xmlns="http://www.w3.org/2000/svg" width="24" height="24" fill="none"><g clip-path="url(#a)"><g><path fill="#121212" d="M6.235 6.453C4.96004 7.77629 4.1795 9.49815 4.02457 11.3292C3.86964 13.1602 4.34977 14.9887 5.38426 16.5074C6.41874 18.0261 7.94451 19.1424 9.70511 19.6686C11.4657 20.1948 13.3538 20.0989 15.052 19.397C15.167 18.647 14.915 17.927 14.812 17.675C14.582 17.115 13.824 16.158 12.559 14.831C12.221 14.476 12.243 14.203 12.364 13.394L12.377 13.303C12.459 12.749 12.597 12.421 14.462 12.125C15.41 11.975 15.659 12.353 16.004 12.878L16.12 13.05C16.448 13.53 16.691 13.64 17.058 13.806C17.223 13.881 17.428 13.976 17.703 14.131C18.355 14.504 18.355 14.925 18.355 15.847V15.952C18.355 16.343 18.317 16.687 18.257 16.986C19.0244 16.0229 19.5591 14.8957 19.8196 13.6922C20.0801 12.4886 20.0593 11.2412 19.7588 10.047C19.4584 8.85284 18.8863 7.7441 18.0873 6.80714C17.2883 5.87017 16.2838 5.13026 15.152 4.645C14.599 5.018 13.84 5.547 13.575 5.91C13.44 6.095 13.248 7.042 12.625 7.12C12.463 7.14 12.244 7.126 12.012 7.111C11.39 7.071 10.54 7.016 10.268 7.755C10.095 8.223 10.065 9.495 10.624 10.155C10.714 10.26 10.731 10.455 10.67 10.674C10.59 10.961 10.429 11.136 10.378 11.172C10.282 11.116 10.09 10.893 9.959 10.742C9.646 10.377 9.254 9.922 8.748 9.782C8.564 9.731 8.362 9.689 8.165 9.647C7.616 9.532 6.995 9.401 6.85 9.093C6.744 8.867 6.745 8.556 6.745 8.228C6.745 7.811 6.745 7.34 6.541 6.883C6.47008 6.71991 6.36585 6.57344 6.235 6.453ZM12 22C6.477 22 2 17.523 2 12C2 6.477 6.477 2 12 2C17.523 2 22 6.477 22 12C22 17.523 17.523 22 12 22Z"/></g></g><defs><clipPath id="a"><rect width="24" height="24" fill="white"/></clipPath></defs></svg>

<svg width="24" height="24" fill="none" xmlns="http://www.w3.org/2000/svg"><g clip-path="url(#a)"><path d="M6.235 6.453a8 8 0 0 0 8.817 12.944c.115-.75-.137-1.47-.24-1.722-.23-.56-.988-1.517-2.253-2.844-.338-.355-.316-.628-.195-1.437l.013-.091c.082-.554.22-.882 2.085-1.178.948-.15 1.197.228 1.542.753l.116.172c.328.48.571.59.938.756.165.075.37.17.645.325.652.373.652.794.652 1.716v.105c0 .391-.038.735-.098 1.034a8.002 8.002 0 0 0-3.105-12.341c-.553.373-1.312.902-1.577 1.265-.135.185-.327 1.132-.95 1.21-.162.02-.381.006-.613-.009-.622-.04-1.472-.095-1.744.644-.173.468-.203 1.74.356 2.4.09.105.107.3.046.519-.08.287-.241.462-.292.498-.096-.056-.288-.279-.419-.43-.313-.365-.705-.82-1.211-.96-.184-.051-.386-.093-.583-.135-.549-.115-1.17-.246-1.315-.554-.106-.226-.105-.537-.105-.865 0-.417 0-.888-.204-1.345a1.276 1.276 0 0 0-.306-.43ZM12 22C6.477 22 2 17.523 2 12S6.477 2 12 2s10 4.477 10 10-4.477 10-10 10Z" /></g><defs><clipPath id="a"><path fill="#fff" d="M0 0h24v24H0z"/></clipPath></defs></svg>
